X: 5
T: John Nee's - Lucy Campbell's
C:
M: 4/4
L: 1/8
R: reel
K: Ador
P:A
|:d|eA~A2 AcBA|GEDE G2(3Bcd|eA~A2 (3Bcd eg|a2ge dged|
eA~A2 AcBA|GEDE G2(3Bcd|e3a gedB|Gd(3BAG BAA:|
|:B|~c3d eg~g2|eaaf g2ed|eA~A2 (3Bcd eg|agge dged|
~c3d eg~g2|eaaf gedB|cABA GE~E2|GABG ~A3:|
P:B
K: Dmaj
| A2 FA A2 dB | A2 FA BE E2 | A2 FA defe | dBAF AD D2 |
AD (3FED A2 dB | (3ABA FA BE E2 | ADFA defe | dBAF AD D2 ||
dBAB defe | d2 cABE E2 | dBAB defe | dBAF AD D2 |
dBAB defe | dB (3BAB gBdB | A2 FA defe | dBAF AD D2 ||
a3 f defg | a2 fa be e2 | a3 f defe | dBAF AD D2 |
a3 f defg | (3aba fa beef | g3 e f3 e | dBAF AD D2 ||
df (3fef dfef | df (3fef afef | dffe f3 e | dBAF AD D2 |
df (3fef dfef | df (3fef afef | g3 e f3 e | dBAF AD D2 ||

